packages/foundations/assets/icons/functional/images/logos/s_bahn_inverted.svg

<svg xmlns="http://www.w3.org/2000/svg" width="32" height="32" fill="none"><path fill="#1A1C1F" fill-rule="evenodd" d="M14.538 6.402c-1.806.206-3.372.929-4.461 2.06-.25.259-.532.585-.628.724-.284.414-.586 1.099-.736 1.667-.121.46-.141.644-.142 1.334-.004 1.547.382 2.578 1.318 3.525.965.976 2.148 1.529 4.906 2.293 2.843.787 3.7 1.23 4.15 2.144.152.309.174.406.174.782.001.363-.022.476-.149.734-.306.624-1.085 1.151-2.039 1.38-.903.216-2.37.07-3.544-.353-1.697-.612-3.37-1.866-4.456-3.341l-.238-.323v3.855l.194.172c.475.423 1.182.874 2.02 1.292 3.077 1.532 6.199 1.706 8.706.484 2.513-1.225 4.072-3.769 3.81-6.218-.135-1.257-.49-2.069-1.236-2.829-.447-.454-.848-.742-1.473-1.057-.902-.454-1.482-.644-3.514-1.15a58 58 0 0 1-1.816-.476c-1.805-.544-2.599-1.248-2.676-2.373-.081-1.178.74-1.999 2.133-2.133.513-.05 1.442.008 2.039.127 1.687.336 3.603 1.419 4.985 2.821.22.222.418.404.44.404s.042-.707.042-1.571V8.805l-.52-.369c-1.859-1.318-3.824-1.976-6.148-2.057a10 10 0 0 0-1.141.023"/></svg>

<svg width="32" height="32" viewBox="0 0 32 32" fill="none" xmlns="http://www.w3.org/2000/svg"><path d="M14.538 6.402 C 12.732 6.608,11.166 7.331,10.077 8.462 C 9.827 8.721,9.545 9.047,9.449 9.186 C 9.165 9.600,8.863 10.285,8.713 10.853 C 8.592 11.313,8.572 11.497,8.571 12.187 C 8.567 13.734,8.953 14.765,9.889 15.712 C 10.854 16.688,12.037 17.241,14.795 18.005 C 17.638 18.792,18.495 19.235,18.945 20.149 C 19.097 20.458,19.119 20.555,19.119 20.931 C 19.120 21.294,19.097 21.407,18.970 21.665 C 18.664 22.289,17.885 22.816,16.931 23.045 C 16.028 23.261,14.561 23.115,13.387 22.692 C 11.690 22.080,10.017 20.826,8.931 19.351 L 8.693 19.028 8.693 20.956 L 8.693 22.883 8.887 23.055 C 9.362 23.478,10.069 23.929,10.907 24.347 C 13.984 25.879,17.106 26.053,19.613 24.831 C 22.126 23.606,23.685 21.062,23.423 18.613 C 23.288 17.356,22.933 16.544,22.187 15.784 C 21.740 15.330,21.339 15.042,20.714 14.727 C 19.812 14.273,19.232 14.083,17.200 13.577 C 16.437 13.387,15.620 13.173,15.384 13.101 C 13.579 12.557,12.785 11.853,12.708 10.728 C 12.627 9.550,13.448 8.729,14.841 8.595 C 15.354 8.545,16.283 8.603,16.880 8.722 C 18.567 9.058,20.483 10.141,21.865 11.543 C 22.085 11.765,22.283 11.947,22.305 11.947 C 22.328 11.947,22.347 11.240,22.347 10.376 L 22.347 8.805 21.827 8.436 C 19.968 7.118,18.003 6.460,15.679 6.379 C 15.284 6.365,14.770 6.375,14.538 6.402 " fill="#1A1C1F" stroke="none" fill-rule="evenodd"></path></svg>
